assets/Proton_tagline.svg

<svg xmlns="http://www.w3.org/2000/svg" width="3421.47" height="390.366" fill="none" style="max-height:500px" viewBox="298.22 334.024 3421.47 390.366"><g fill="#6d4aff" clip-path="url(#a)"><path d="M575.266 619.972V519.218c0-41.106 24.084-73.843 72.259-73.843a92.7 92.7 0 0 1 22.968 2.544v41.449c-5.474-.363-10.208-.363-12.403-.363-25.52 0-36.493 11.638-36.493 35.281v95.686zM684.359 534.518c0-50.562 38.318-89.118 91.604-89.118 53.285 0 91.59 38.531 91.59 89.118s-38.318 89.454-91.597 89.454-91.597-38.918-91.597-89.454m137.584 0c0-28.737-19.344-49.106-45.98-49.106-26.637 0-45.987 20.35-45.987 49.106 0 29.099 19.344 49.105 45.987 49.105s45.974-20.031 45.974-49.105zM1001.85 485.749h-49.996v63.656c0 22.187 8.026 32.374 31.019 32.374 2.189 0 7.656 0 14.598-.362v37.468c-9.487 2.543-17.864 4-27.007 4-38.681 0-64.96-23.281-64.96-67.293v-69.843h-31.02v-36.737h7.733c3.06 0 6.09-.601 8.917-1.769a23.3 23.3 0 0 0 7.558-5.038 23.2 23.2 0 0 0 6.812-16.429v-34.6h46.35v57.836h49.996zM1015.71 534.518c0-50.562 38.32-89.118 91.6-89.118 53.29 0 91.6 38.531 91.6 89.118s-38.32 89.48-91.6 89.48c-53.27 0-91.6-38.944-91.6-89.48m137.58 0c0-28.737-19.35-49.106-45.98-49.106-26.64 0-45.99 20.35-45.99 49.106 0 29.099 19.35 49.105 45.99 49.105s45.98-20.031 45.98-49.105M1222.99 619.972v-97.117c0-45.105 28.83-77.48 80.29-77.48 51.09 0 79.92 32.375 79.92 77.48v97.117h-45.98v-93.479c0-25.094-11.32-40.737-33.94-40.737-22.63 0-33.94 15.643-33.94 40.737v93.479zM366 553.831v66.135h46.574v-63.274a23.17 23.17 0 0 1 6.82-16.412 23.33 23.33 0 0 1 16.467-6.799h47.754c22.277-.006 43.64-8.832 59.39-24.534a83.6 83.6 0 0 0 24.602-59.203 83.6 83.6 0 0 0-24.604-59.211c-15.754-15.705-37.121-24.53-59.401-24.533H366v82.669h46.574v-38.975h67.889a39.82 39.82 0 0 1 28.105 11.601 39.56 39.56 0 0 1 11.648 28.01 39.56 39.56 0 0 1-11.643 28.018 39.82 39.82 0 0 1-28.11 11.606h-49.356a65.3 65.3 0 0 0-24.922 4.932 65.1 65.1 0 0 0-21.127 14.068 64.85 64.85 0 0 0-14.112 21.06A64.7 64.7 0 0 0 366 553.831M1564.59 445.341h-20.1v178.464h20.1zM1732 620.376v-172.85h68.24c15.05 0 27.73 4.913 38.05 14.745q15.48 14.742 15.48 36.095c0 14.235-5.16 26.098-15.48 36.095s-23 14.998-38.05 14.998h-44.39v70.922H1732zm23.85-92.782h39.31c11.5 0 20.04-2.794 25.63-8.388 5.75-5.764 8.62-12.709 8.62-20.845q0-12.202-8.37-20.592-8.115-8.39-25.11-8.388h-40.08zm118.75 17.54q0-21.61 12.18-33.806c8.12-8.306 18.77-12.456 31.96-12.456 4.23 0 8.54.592 12.94 1.778v21.355c-1.53-.17-4.57-.252-9.14-.252-7.94 0-14.03 2.201-18.26 6.609s-6.34 11.863-6.34 22.371v69.648h-23.34v-75.247m80.27 75.242V501.413h23.34v118.963zm.76-146.164c-2.87-2.882-4.31-6.44-4.31-10.678 0-4.237 1.44-7.795 4.31-10.677 3.05-3.052 6.68-4.573 10.91-4.573q6.345.001 10.65 4.573c3.05 2.882 4.57 6.44 4.57 10.677 0 4.238-1.53 7.796-4.57 10.678q-4.305 4.322-10.65 4.32c-4.23 0-7.86-1.438-10.91-4.32m86.22 146.164-46.68-118.963h25.62l26.89 74.732q3.045 8.39 4.56 14.745h.51c1.02-4.238 2.54-9.151 4.57-14.745l26.88-74.732h25.88l-46.68 118.963h-21.56zm132.93 2.541c-15.9 0-29.51-5.593-40.84-16.776-11.16-11.183-16.75-26.268-16.75-45.246s5.59-34.064 16.75-45.247c11.33-11.183 24.94-16.776 40.84-16.776 8.45 0 16.32 1.866 23.59 5.593 7.44 3.558 13.36 8.641 17.75 15.251l2.03-18.303h20.55v118.963h-20.55l-2.03-18.303c-4.4 6.61-10.31 11.776-17.75 15.508-7.27 3.558-15.14 5.336-23.59 5.336m-23.09-91.508c-7.44 7.285-11.16 17.117-11.16 29.486q0 18.552 11.16 29.743c7.44 7.285 16.4 10.93 26.89 10.93 10.48 0 18.94-3.728 26.38-11.183 7.44-7.625 11.16-17.457 11.16-29.485 0-12.029-3.72-21.778-11.16-29.233-7.44-7.625-16.23-11.441-26.38-11.441s-19.45 3.728-26.89 11.183m173.53 91.508c-17.58 0-32.13-5.764-43.63-17.287q-17.25-17.538-17.25-44.735 0-27.2 17.25-44.484c11.5-11.693 26.05-17.539 43.63-17.539q21.57 0 36.78 12.203 15.225 12.204 19.53 31.012h-24.1c-6.08-14.576-16.82-21.861-32.21-21.861-10.83 0-19.79 3.816-26.89 11.441-7.11 7.625-10.66 17.369-10.66 29.233 0 11.863 3.55 21.607 10.66 29.232 7.1 7.626 16.07 11.441 26.89 11.441 15.05 0 25.79-7.285 32.21-21.86h24.1q-4.305 18.808-19.53 31.011-15.21 12.204-36.78 12.204zm119.21-29.232q1.26-8.136 4.56-17.03l27.65-75.242h24.86L2435.55 670.2h-25.12l20.8-51.345-45.4-117.437h25.87l27.65 75.243c2.2 5.929 3.72 11.61 4.57 17.029h.51zm198.69 29.232c-18.43 0-32.04-6.862-40.84-20.591l-2.02 18.05h-20.55v-172.85h23.34v70.664c8.79-12.879 22.15-19.318 40.07-19.318 15.73 0 29.18 5.593 40.34 16.776s16.74 26.268 16.74 45.247-5.58 34.063-16.74 45.246-24.61 16.776-40.34 16.776m-29.93-91.508c-7.27 7.455-10.91 17.287-10.91 29.486 0 12.198 3.64 22.03 10.91 29.485q11.16 11.183 26.64 11.183c10.31 0 19.28-3.646 26.38-10.93 7.11-7.285 10.66-17.2 10.66-29.744 0-12.543-3.55-22.453-10.66-29.743-7.1-7.29-15.9-10.93-26.38-10.93-10.49 0-19.2 3.728-26.64 11.183zm152.28 62.276c.85-5.424 2.37-11.101 4.57-17.03l27.65-75.242h24.86L2756.59 670.2h-25.11l20.8-51.345-45.4-117.437h25.87l27.65 75.243c2.2 5.929 3.72 11.61 4.56 17.029h.51zm223.81 26.691-2.02-18.05c-8.8 13.724-22.41 20.591-40.84 20.591-15.73 0-29.17-5.593-40.34-16.776-11.16-11.183-16.74-26.268-16.74-45.246s5.58-34.064 16.74-45.247c11.17-11.183 24.61-16.776 40.34-16.776 17.93 0 31.28 6.439 40.08 19.318v-70.664h23.33v172.85zm-65.95-89.225q-10.65 10.928-10.65 29.744c0 12.543 3.55 22.453 10.65 29.743 7.1 7.285 15.9 10.93 26.39 10.93 10.48 0 19.11-3.728 26.37-11.183 7.45-7.455 11.17-17.287 11.17-29.485s-3.72-22.031-11.17-29.486c-7.26-7.455-16.07-11.182-26.37-11.182-10.31 0-19.28 3.645-26.39 10.93zm173.03 91.766c-17.42 0-31.8-5.764-43.13-17.287-11.16-11.523-16.75-26.438-16.75-44.735s5.59-33.213 16.75-44.736 25.53-17.287 43.13-17.287c15.71 0 29.08 6.016 40.08 18.05 11.15 11.863 16.73 26.521 16.73 43.978 0 3.727-.16 6.779-.51 9.151h-92.07c1.69 9.662 5.75 17.37 12.17 23.134 6.59 5.594 14.46 8.388 23.6 8.388 14.71 0 24.68-5.594 29.92-16.777h23.84c-3.54 11.523-10.23 20.757-20.04 27.707-9.63 6.95-20.88 10.42-33.73 10.42zm-35.52-72.19h68.23c-.84-8.305-4.32-15.42-10.4-21.354q-9.135-9.151-22.32-9.152c-8.79 0-16.91 2.795-23.34 8.389-6.25 5.423-10.32 12.796-12.17 22.112zm121.25-63.801c0-12.709 3.55-22.706 10.66-29.996q10.65-10.929 27.39-10.93c4.74 0 9.22.593 13.45 1.779v19.318c-2.71-.34-5.07-.51-7.11-.51-14.03 0-21.05 6.95-21.05 20.844v13.982h33.23v19.829h-33.23v99.134h-23.34v-99.134h-22.83v-19.829h22.83zm123.78 135.997c-15.89 0-29.51-5.594-40.84-16.777-11.15-11.183-16.74-26.268-16.74-45.246s5.59-34.064 16.74-45.247c11.33-11.182 24.95-16.776 40.84-16.776 8.45 0 16.32 1.866 23.6 5.594 7.43 3.557 13.35 8.641 17.75 15.25l2.03-18.303h20.55v118.963h-20.55l-2.03-18.303c-4.4 6.61-10.32 11.776-17.75 15.508-7.28 3.558-15.14 5.337-23.6 5.337m-23.09-91.509c-7.43 7.285-11.15 17.117-11.15 29.486s3.72 22.283 11.15 29.743c7.45 7.285 16.41 10.93 26.9 10.93 10.5 0 18.94-3.728 26.38-11.183 7.45-7.625 11.16-17.457 11.16-29.485s-3.72-21.778-11.16-29.233c-7.44-7.625-16.23-11.44-26.38-11.44-10.14 0-19.45 3.727-26.9 11.182m207.53 77.274c-9.13 9.491-21.4 14.235-36.78 14.235s-27.65-4.744-36.79-14.235c-9.12-9.492-13.69-21.778-13.69-36.858v-70.412h23.33v68.633c0 9.827 2.3 17.457 6.86 22.876 4.56 5.424 11.33 8.135 20.29 8.135s15.73-2.711 20.29-8.135c4.57-5.424 6.85-13.049 6.85-22.876v-68.633h23.34v70.412c0 15.08-4.56 27.366-13.7 36.858m48.85 11.693V447.526h23.33v172.85h-23.33zm107.55 1.526c-11.84 0-21.65-3.558-29.42-10.678-7.61-7.12-11.42-16.859-11.42-29.232l-.26-60.755h-21.05v-19.829h21.05v-39.91h23.6v39.91h34.5v19.829h-34.5v57.955q0 12.204 5.58 17.029c3.89 3.053 9.97 4.574 18.26 4.574q3.555.001 8.88-.253v19.571c-4.9 1.186-9.97 1.779-15.22 1.779z"/></g><defs><clipPath id="a"><path fill="#fff" d="M366 366h3298v304H366z"/></clipPath></defs></svg>

<svg xmlns="http://www.w3.org/2000/svg" fill="none" viewBox="298.21999999999997 334.0243902439024 3421.47 390.3658536585366" style="max-height: 500px" width="3421.47" height="390.3658536585366">
<g clip-path="url(#clip0_11891_190719)">
<path fill="#6D4AFF" d="M575.266 619.972V519.218C575.266 478.112 599.35 445.375 647.525 445.375C655.258 445.262 662.974 446.117 670.493 447.919V489.368C665.019 489.005 660.285 489.005 658.09 489.005C632.57 489.005 621.597 500.643 621.597 524.286V619.972H575.266Z"/>
<path fill="#6D4AFF" d="M684.359 534.518C684.359 483.956 722.677 445.4 775.963 445.4C829.248 445.4 867.553 483.931 867.553 534.518C867.553 585.105 829.235 623.972 775.956 623.972C722.677 623.972 684.359 585.054 684.359 534.518ZM821.943 534.518C821.943 505.781 802.599 485.412 775.963 485.412C749.326 485.412 729.976 505.762 729.976 534.518C729.976 563.617 749.32 583.623 775.963 583.623C802.606 583.623 821.937 563.592 821.937 534.518H821.943Z"/>
<path fill="#6D4AFF" d="M1001.85 485.749H951.854V549.405C951.854 571.592 959.88 581.779 982.873 581.779C985.062 581.779 990.529 581.779 997.471 581.417V618.885C987.984 621.428 979.607 622.885 970.464 622.885C931.783 622.885 905.504 599.604 905.504 555.592V485.749H874.484V449.012H882.217C885.277 449.012 888.307 448.411 891.134 447.243C893.961 446.075 896.529 444.363 898.692 442.205C900.855 440.047 902.57 437.485 903.738 434.666C904.907 431.847 905.507 428.826 905.504 425.776V391.176H951.854V449.012H1001.85V485.749Z"/>
<path fill="#6D4AFF" d="M1015.71 534.518C1015.71 483.956 1054.03 445.4 1107.31 445.4C1160.6 445.4 1198.91 483.931 1198.91 534.518C1198.91 585.105 1160.59 623.998 1107.31 623.998C1054.04 623.998 1015.71 585.054 1015.71 534.518ZM1153.29 534.518C1153.29 505.781 1133.94 485.412 1107.31 485.412C1080.67 485.412 1061.32 505.762 1061.32 534.518C1061.32 563.617 1080.67 583.623 1107.31 583.623C1133.95 583.623 1153.29 563.592 1153.29 534.518Z"/>
<path fill="#6D4AFF" d="M1222.99 619.972V522.855C1222.99 477.75 1251.82 445.375 1303.28 445.375C1354.37 445.375 1383.2 477.75 1383.2 522.855V619.972H1337.22V526.493C1337.22 501.399 1325.9 485.756 1303.28 485.756C1280.65 485.756 1269.34 501.399 1269.34 526.493V619.972H1222.99Z"/>
<path fill="#6D4AFF" d="M366 553.831V619.966H412.574V556.692C412.574 550.536 415.027 544.633 419.394 540.28C423.761 535.927 429.684 533.481 435.861 533.481H483.615C505.892 533.475 527.255 524.649 543.005 508.947C558.756 493.244 567.605 471.949 567.607 449.744V449.744C567.607 427.536 558.757 406.237 543.003 390.533C527.249 374.828 505.882 366.003 483.602 366H366V448.669H412.574V409.694H480.463C491.004 409.694 501.113 413.867 508.568 421.295C516.023 428.723 520.213 438.798 520.216 449.305V449.305C520.216 459.814 516.028 469.893 508.573 477.323C501.118 484.754 491.006 488.929 480.463 488.929H431.107C422.556 488.925 414.087 490.601 406.185 493.861C398.284 497.121 391.105 501.902 385.058 507.929C379.011 513.957 374.216 521.113 370.946 528.989C367.676 536.865 365.995 545.307 366 553.831V553.831Z"/>
<path fill="#6D4AFF" d="M1564.59 445.341H1544.49V623.805H1564.59V445.341Z"/>
<path fill="#6D4AFF" d="M1732 620.376V447.526H1800.24C1815.29 447.526 1827.97 452.439 1838.29 462.271C1848.61 472.098 1853.77 484.131 1853.77 498.366C1853.77 512.601 1848.61 524.464 1838.29 534.461C1827.97 544.458 1815.29 549.459 1800.24 549.459H1755.85V620.381H1732V620.376ZM1755.85 527.594H1795.16C1806.66 527.594 1815.2 524.8 1820.79 519.206C1826.54 513.442 1829.41 506.497 1829.41 498.361C1829.41 490.225 1826.62 483.363 1821.04 477.769C1815.63 472.175 1807.26 469.381 1795.93 469.381H1755.85V527.594V527.594ZM1874.6 545.134C1874.6 530.729 1878.66 519.458 1886.78 511.328C1894.9 503.022 1905.55 498.872 1918.74 498.872C1922.97 498.872 1927.28 499.464 1931.68 500.65V522.005C1930.15 521.835 1927.11 521.753 1922.54 521.753C1914.6 521.753 1908.51 523.954 1904.28 528.362C1900.05 532.77 1897.94 540.225 1897.94 550.733V620.381H1874.6V545.139L1874.6 545.134ZM1954.87 620.376V501.413H1978.21V620.376H1954.87ZM1955.63 474.212C1952.76 471.33 1951.32 467.772 1951.32 463.534C1951.32 459.297 1952.76 455.739 1955.63 452.857C1958.68 449.805 1962.31 448.284 1966.54 448.284C1970.77 448.284 1974.32 449.81 1977.19 452.857C1980.24 455.739 1981.76 459.297 1981.76 463.534C1981.76 467.772 1980.23 471.33 1977.19 474.212C1974.32 477.094 1970.77 478.532 1966.54 478.532C1962.31 478.532 1958.68 477.094 1955.63 474.212ZM2041.85 620.376L1995.17 501.413H2020.79L2047.68 576.145C2049.71 581.739 2051.23 586.652 2052.24 590.89H2052.75C2053.77 586.652 2055.29 581.739 2057.32 576.145L2084.2 501.413H2110.08L2063.4 620.376H2041.84H2041.85ZM2174.78 622.917C2158.88 622.917 2145.27 617.324 2133.94 606.141C2122.78 594.958 2117.19 579.873 2117.19 560.895C2117.19 541.916 2122.78 526.831 2133.94 515.648C2145.27 504.465 2158.88 498.872 2174.78 498.872C2183.23 498.872 2191.1 500.738 2198.37 504.465C2205.81 508.023 2211.73 513.106 2216.12 519.716L2218.15 501.413H2238.7V620.376H2218.15L2216.12 602.073C2211.72 608.683 2205.81 613.849 2198.37 617.581C2191.1 621.139 2183.23 622.917 2174.78 622.917ZM2151.69 531.409C2144.25 538.694 2140.53 548.526 2140.53 560.895C2140.53 573.263 2144.25 583.177 2151.69 590.638C2159.13 597.923 2168.09 601.568 2178.58 601.568C2189.06 601.568 2197.52 597.84 2204.96 590.385C2212.4 582.76 2216.12 572.928 2216.12 560.9C2216.12 548.871 2212.4 539.122 2204.96 531.667C2197.52 524.042 2188.73 520.226 2178.58 520.226C2168.43 520.226 2159.13 523.954 2151.69 531.409ZM2325.22 622.917C2307.64 622.917 2293.09 617.153 2281.59 605.63C2270.09 593.937 2264.34 579.027 2264.34 560.895C2264.34 542.762 2270.09 527.934 2281.59 516.411C2293.09 504.718 2307.64 498.872 2325.22 498.872C2339.6 498.872 2351.86 502.939 2362 511.075C2372.15 519.211 2378.66 529.548 2381.53 542.087H2357.43C2351.35 527.511 2340.61 520.226 2325.22 520.226C2314.39 520.226 2305.43 524.042 2298.33 531.667C2291.22 539.292 2287.67 549.036 2287.67 560.9C2287.67 572.763 2291.22 582.507 2298.33 590.132C2305.43 597.758 2314.4 601.573 2325.22 601.573C2340.27 601.573 2351.01 594.288 2357.43 579.713H2381.53C2378.66 592.251 2372.15 602.589 2362 610.724C2351.86 618.86 2339.6 622.928 2325.22 622.928V622.917ZM2444.43 593.685C2445.27 588.261 2446.79 582.584 2448.99 576.655L2476.64 501.413H2501.5L2435.55 670.2H2410.43L2431.23 618.855L2385.83 501.418H2411.7L2439.35 576.661C2441.55 582.59 2443.07 588.271 2443.92 593.69H2444.43V593.685ZM2643.12 622.917C2624.69 622.917 2611.08 616.055 2602.28 602.326L2600.26 620.376H2579.71V447.526H2603.05V518.19C2611.84 505.311 2625.2 498.872 2643.12 498.872C2658.85 498.872 2672.3 504.465 2683.46 515.648C2694.62 526.831 2700.2 541.916 2700.2 560.895C2700.2 579.873 2694.62 594.958 2683.46 606.141C2672.3 617.324 2658.85 622.917 2643.12 622.917V622.917ZM2613.19 531.409C2605.92 538.864 2602.28 548.696 2602.28 560.895C2602.28 573.093 2605.92 582.925 2613.19 590.38C2620.63 597.835 2629.51 601.563 2639.83 601.563C2650.14 601.563 2659.11 597.917 2666.21 590.633C2673.32 583.348 2676.87 573.433 2676.87 560.889C2676.87 548.346 2673.32 538.436 2666.21 531.146C2659.11 523.856 2650.31 520.216 2639.83 520.216C2629.34 520.216 2620.63 523.944 2613.19 531.399V531.409ZM2765.47 593.685C2766.32 588.261 2767.84 582.584 2770.04 576.655L2797.69 501.413H2822.55L2756.59 670.2H2731.48L2752.28 618.855L2706.88 501.418H2732.75L2760.4 576.661C2762.6 582.59 2764.12 588.271 2764.96 593.69H2765.47V593.685ZM2989.28 620.376L2987.26 602.326C2978.46 616.05 2964.85 622.917 2946.42 622.917C2930.69 622.917 2917.25 617.324 2906.08 606.141C2894.92 594.958 2889.34 579.873 2889.34 560.895C2889.34 541.916 2894.92 526.831 2906.08 515.648C2917.25 504.465 2930.69 498.872 2946.42 498.872C2964.35 498.872 2977.7 505.311 2986.5 518.19V447.526H3009.83V620.376H2989.28V620.376ZM2923.33 531.151C2916.23 538.436 2912.68 548.351 2912.68 560.895C2912.68 573.438 2916.23 583.348 2923.33 590.638C2930.43 597.923 2939.23 601.568 2949.72 601.568C2960.2 601.568 2968.83 597.84 2976.09 590.385C2983.54 582.93 2987.26 573.098 2987.26 560.9C2987.26 548.701 2983.54 538.869 2976.09 531.414C2968.83 523.959 2960.02 520.232 2949.72 520.232C2939.41 520.232 2930.44 523.877 2923.33 531.162V531.151ZM3096.36 622.917C3078.94 622.917 3064.56 617.153 3053.23 605.63C3042.07 594.107 3036.48 579.192 3036.48 560.895C3036.48 542.597 3042.07 527.682 3053.23 516.159C3064.39 504.636 3078.76 498.872 3096.36 498.872C3112.07 498.872 3125.44 504.888 3136.44 516.922C3147.59 528.785 3153.17 543.443 3153.17 560.9C3153.17 564.627 3153.01 567.679 3152.66 570.051H3060.59C3062.28 579.713 3066.34 587.421 3072.76 593.185C3079.35 598.779 3087.22 601.573 3096.36 601.573C3111.07 601.573 3121.04 595.979 3126.28 584.796H3150.12C3146.58 596.319 3139.89 605.553 3130.08 612.503C3120.45 619.453 3109.2 622.923 3096.35 622.923L3096.36 622.917ZM3060.84 550.727H3129.07C3128.23 542.422 3124.75 535.307 3118.67 529.373C3112.58 523.273 3105.14 520.221 3096.35 520.221C3087.56 520.221 3079.44 523.016 3073.01 528.61C3066.76 534.033 3062.69 541.406 3060.84 550.722V550.727ZM3182.09 486.926C3182.09 474.217 3185.64 464.22 3192.75 456.93C3199.85 449.645 3208.98 446 3220.14 446C3224.88 446 3229.36 446.593 3233.59 447.779V467.097C3230.88 466.757 3228.52 466.587 3226.48 466.587C3212.45 466.587 3205.43 473.537 3205.43 487.431V501.413H3238.66V521.242H3205.43V620.376H3182.09V521.242H3159.26V501.413H3182.09V486.926V486.926ZM3305.87 622.923C3289.98 622.923 3276.36 617.329 3265.03 606.146C3253.88 594.963 3248.29 579.878 3248.29 560.9C3248.29 541.922 3253.88 526.836 3265.03 515.653C3276.36 504.471 3289.98 498.877 3305.87 498.877C3314.32 498.877 3322.19 500.743 3329.47 504.471C3336.9 508.028 3342.82 513.112 3347.22 519.721L3349.25 501.418H3369.8V620.381H3349.25L3347.22 602.078C3342.82 608.688 3336.9 613.854 3329.47 617.586C3322.19 621.144 3314.33 622.923 3305.87 622.923ZM3282.78 531.414C3275.35 538.699 3271.63 548.531 3271.63 560.9C3271.63 573.268 3275.35 583.183 3282.78 590.643C3290.23 597.928 3299.19 601.573 3309.68 601.573C3320.18 601.573 3328.62 597.845 3336.06 590.39C3343.51 582.765 3347.22 572.933 3347.22 560.905C3347.22 548.877 3343.5 539.127 3336.06 531.672C3328.62 524.047 3319.83 520.232 3309.68 520.232C3299.54 520.232 3290.23 523.959 3282.78 531.414ZM3490.31 608.688C3481.18 618.179 3468.91 622.923 3453.53 622.923C3438.15 622.923 3425.88 618.179 3416.74 608.688C3407.62 599.196 3403.05 586.91 3403.05 571.83V501.418H3426.38V570.051C3426.38 579.878 3428.68 587.508 3433.24 592.927C3437.8 598.351 3444.57 601.062 3453.53 601.062C3462.49 601.062 3469.26 598.351 3473.82 592.927C3478.39 587.503 3480.67 579.878 3480.67 570.051V501.418H3504.01V571.83C3504.01 586.91 3499.45 599.196 3490.31 608.688ZM3539.16 620.381V447.526H3562.49V620.376H3539.16V620.381ZM3646.71 621.907C3634.87 621.907 3625.06 618.349 3617.29 611.229C3609.68 604.109 3605.87 594.37 3605.87 581.997L3605.61 521.242H3584.56V501.413H3605.61V461.503H3629.21V501.413H3663.71V521.242H3629.21V579.197C3629.21 587.333 3631.07 593.009 3634.79 596.226C3638.68 599.279 3644.76 600.8 3653.05 600.8C3655.42 600.8 3658.38 600.717 3661.93 600.547V620.118C3657.03 621.304 3651.96 621.897 3646.71 621.897V621.907Z"/>
</g>
<defs>
<clipPath id="clip0_11891_190719">
<rect transform="translate(366 366)" fill="white" height="304" width="3298"/>
</clipPath>
</defs>
</svg>
